flaticon/science/dna.svg

<svg xmlns="http://www.w3.org/2000/svg" width="32" height="32" viewBox="0 0 24 24">
    <path d="M 23.878906 6.480469 C 23.714844 6.316406 23.46875 6.316406 23.304688 6.480469 C 23.191406 6.59375 23.078125 6.699219 22.964844 6.796875 L 17.179688 1.011719 C 17.265625 0.914062 17.359375 0.8125 17.457031 0.714844 C 17.621094 0.550781 17.621094 0.308594 17.457031 0.144531 C 17.292969 -0.0195312 17.050781 -0.0195312 16.886719 0.144531 C 15.828125 1.21875 15.394531 2.246094 15.3125 3.410156 C 15.289062 3.480469 15.285156 3.550781 15.300781 3.621094 C 15.265625 4.640625 15.480469 5.765625 15.769531 7.121094 C 14.632812 6.914062 13.5625 6.851562 12.59375 6.921875 C 12.480469 6.871094 12.363281 6.878906 12.253906 6.953125 C 10.941406 7.097656 9.824219 7.5 8.988281 8.140625 C 8.933594 8.160156 8.878906 8.191406 8.832031 8.238281 C 8.804688 8.261719 8.785156 8.289062 8.769531 8.316406 C 8.691406 8.386719 8.617188 8.453125 8.546875 8.523438 C 7.71875 9.347656 7.355469 10.359375 7.304688 11.617188 C 7.273438 11.699219 7.269531 11.789062 7.296875 11.871094 C 7.285156 12.839844 7.445312 13.953125 7.714844 15.230469 C 4.242188 14.550781 1.945312 15.085938 0.121094 16.90625 C -0.0390625 17.070312 -0.0390625 17.316406 0.121094 17.480469 C 0.203125 17.558594 0.285156 17.601562 0.410156 17.601562 C 0.53125 17.601562 0.613281 17.558594 0.652344 17.519531 C 0.867188 17.308594 1.082031 17.117188 1.308594 16.945312 L 7.039062 22.675781 C 6.875 22.886719 6.695312 23.089844 6.5 23.285156 C 6.335938 23.449219 6.335938 23.691406 6.5 23.855469 C 6.582031 23.9375 6.664062 23.980469 6.785156 23.980469 C 6.867188 23.980469 6.992188 23.9375 7.113281 23.816406 C 8.917969 22.011719 9.460938 19.742188 8.8125 16.324219 C 11.851562 16.957031 13.933594 16.957031 15.414062 15.476562 C 16.921875 14.007812 17.40625 11.335938 16.796875 8.148438 C 19.882812 8.808594 21.824219 9.105469 23.878906 7.054688 C 24.039062 6.890625 24.039062 6.644531 23.878906 6.480469 Z M 22.308594 7.28125 C 21.761719 7.613281 21.207031 7.785156 20.59375 7.835938 C 20.574219 7.804688 20.550781 7.777344 20.523438 7.746094 L 16.105469 3.367188 C 16.164062 2.757812 16.34375 2.207031 16.6875 1.660156 Z M 19.367188 7.8125 C 18.578125 7.726562 17.683594 7.535156 16.617188 7.296875 C 16.382812 6.214844 16.191406 5.320312 16.117188 4.53125 Z M 15.949219 7.964844 C 16.136719 8.871094 16.230469 9.734375 16.238281 10.535156 L 13.40625 7.703125 C 14.199219 7.699219 15.058594 7.785156 15.949219 7.964844 Z M 15.378906 14.214844 L 9.757812 8.589844 C 10.453125 8.148438 11.355469 7.863281 12.394531 7.753906 L 16.066406 11.425781 C 16.109375 11.46875 16.152344 11.5 16.199219 11.519531 C 16.097656 12.585938 15.824219 13.5 15.378906 14.214844 Z M 8.164062 12.804688 L 11.203125 15.84375 C 10.4375 15.777344 9.578125 15.628906 8.617188 15.421875 C 8.394531 14.449219 8.234375 13.578125 8.164062 12.804688 Z M 7.910156 16.132812 C 8.101562 17.070312 8.207031 17.910156 8.222656 18.671875 L 5.34375 15.789062 C 6.109375 15.816406 6.957031 15.929688 7.910156 16.132812 Z M 1.996094 16.492188 C 2.660156 16.125 3.390625 15.90625 4.230469 15.820312 L 8.179688 19.773438 C 8.089844 20.605469 7.859375 21.332031 7.496094 21.988281 Z M 12.378906 15.875 L 8.128906 11.625 C 8.175781 10.570312 8.472656 9.742188 9.117188 9.097656 L 14.882812 14.859375 C 14.867188 14.875 14.855469 14.890625 14.839844 14.902344 C 14.210938 15.53125 13.398438 15.820312 12.378906 15.875 Z M 12.378906 15.875"/>
</svg>

<svg xmlns="http://www.w3.org/2000/svg" width="32" height="32" viewBox="0 0 24 24">
    <path d="M23.879 6.48a.396.396 0 0 0-.574 0 6.285 6.285 0 0 1-.34.317L17.18 1.012c.086-.098.18-.2.277-.297a.392.392 0 0 0 0-.57.392.392 0 0 0-.57 0c-1.059 1.074-1.492 2.101-1.575 3.265a.389.389 0 0 0-.011.211c-.035 1.02.18 2.145.469 3.5-1.137-.207-2.207-.27-3.176-.2a.334.334 0 0 0-.34.032c-1.313.145-2.43.547-3.266 1.188a.419.419 0 0 0-.218.175c-.079.07-.153.137-.223.207-.828.825-1.192 1.836-1.242 3.094a.378.378 0 0 0-.008.254c-.012.969.148 2.082.418 3.36-3.473-.68-5.77-.145-7.594 1.675a.403.403 0 0 0 0 .574.386.386 0 0 0 .29.122.344.344 0 0 0 .241-.082c.215-.211.43-.403.657-.575l5.73 5.73c-.164.212-.344.415-.539.61a.392.392 0 0 0 0 .57.373.373 0 0 0 .285.125c.082 0 .207-.043.328-.164 1.805-1.804 2.348-4.074 1.7-7.492 3.039.633 5.12.633 6.601-.847 1.508-1.47 1.992-4.141 1.383-7.329 3.086.66 5.027.957 7.082-1.093a.403.403 0 0 0 0-.575zm-1.57.801a3.813 3.813 0 0 1-1.715.555.706.706 0 0 0-.07-.09l-4.419-4.379c.06-.61.239-1.16.582-1.707zm-2.942.532c-.789-.086-1.683-.278-2.75-.516-.234-1.082-.426-1.977-.5-2.766zm-3.418.152c.188.906.281 1.77.29 2.57l-2.833-2.832c.793-.004 1.653.082 2.543.262zm-.57 6.25L9.758 8.59c.695-.442 1.597-.727 2.637-.836l3.671 3.672a.415.415 0 0 0 .133.094c-.101 1.066-.375 1.98-.82 2.695zm-7.215-1.41l3.04 3.039c-.767-.067-1.626-.215-2.587-.422-.222-.973-.383-1.844-.453-2.617zm-.254 3.328c.192.937.297 1.777.313 2.539l-2.88-2.883c.766.027 1.614.14 2.567.344zm-5.914.36c.664-.368 1.395-.587 2.234-.673l3.95 3.953a5.774 5.774 0 0 1-.684 2.215zm10.383-.618l-4.25-4.25c.047-1.055.344-1.883.988-2.527l5.766 5.761c-.016.016-.028.032-.043.043-.63.63-1.442.918-2.461.973zm0 0"/>
</svg>
